docs/.gitbook/assets/icon-film-strip-16@light.svg

<svg width="32" height="32" viewBox="0 0 16 16" fill="none" xmlns="http://www.w3.org/2000/svg">
<rect x="0" y="0" width="16" height="16" fill="#fff"/>
<path fill-rule="evenodd" clip-rule="evenodd" d="M2 2.75C2 1.7835 2.7835 1 3.75 1L5.75 1L10.25 1L12.25 1C13.2165 1 14 1.7835 14 2.75V4.75V8V11.25V13.25C14 14.2165 13.2165 15 12.25 15H10.25H5.75H3.75C2.7835 15 2 14.2165 2 13.25L2 11.25L2 8L2 4.75L2 2.75ZM3.75 2.5C3.61193 2.5 3.5 2.61193 3.5 2.75V4H5V2.5L3.75 2.5ZM6.5 2.5V4.75V8L6.5 11.25V13.5H9.5V11.25V8L9.5 4.75V2.5L6.5 2.5ZM11 2.5V4L12.5 4V2.75C12.5 2.61193 12.3881 2.5 12.25 2.5H11ZM12.5 5.5H11V7.25H12.5V5.5ZM12.5 8.75H11V10.5H12.5V8.75ZM12.5 12H11V13.5H12.25C12.3881 13.5 12.5 13.3881 12.5 13.25V12ZM5 13.5V12H3.5L3.5 13.25C3.5 13.3881 3.61193 13.5 3.75 13.5H5ZM3.5 10.5H5L5 8.75H3.5L3.5 10.5ZM3.5 7.25H5L5 5.5H3.5L3.5 7.25Z" fill="#000"/>
</svg>

<svg xmlns="http://www.w3.org/2000/svg" width="32" height="32" fill="none" viewBox="0 0 16 16"><path fill="#fff" d="M0 0h16v16H0z"/><path fill="#000" fill-rule="evenodd" d="M2 2.75C2 1.784 2.784 1 3.75 1h8.5c.966 0 1.75.784 1.75 1.75v10.5A1.75 1.75 0 0 1 12.25 15h-8.5A1.75 1.75 0 0 1 2 13.25zm1.75-.25a.25.25 0 0 0-.25.25V4H5V2.5zm2.75 0v11h3v-11zm4.5 0V4h1.5V2.75a.25.25 0 0 0-.25-.25zm1.5 3H11v1.75h1.5zm0 3.25H11v1.75h1.5zm0 3.25H11v1.5h1.25a.25.25 0 0 0 .25-.25zM5 13.5V12H3.5v1.25c0 .138.112.25.25.25zm-1.5-3H5V8.75H3.5zm0-3.25H5V5.5H3.5z" clip-rule="evenodd"/></svg>
